public/avatar/hat/193.svg

<svg xmlns:xlink="http://www.w3.org/1999/xlink" height="92.9" width="100.7" xmlns="http://www.w3.org/2000/svg"><g transform="translate(38.65 49.75)"><use height="29.6" transform="translate(-20.45 -4.3)" width="44.45" xlink:href="#a"/><use height="25.4" transform="translate(-17.5 -11.5)" width="24.75" xlink:href="#b"/><use height="23.1" transform="translate(-16.7 -10)" width="23.15" xlink:href="#c"/><use height="18.65" transform="translate(-8.75 -9.35)" width="14.8" xlink:href="#d"/><use height="10" transform="translate(-11.65 -5.95)" width="7.25" xlink:href="#e"/><use height="17.95" transform="translate(-6.55 -9.2)" width="12.25" xlink:href="#f"/><use height="1.5" transform="translate(-9.9 -10.55)" width="2.8" xlink:href="#g"/><use height="23.05" transform="translate(-16.45 -10.15)" width="22.85" xlink:href="#h"/></g><defs><use height="29.6" width="44.45" xlink:href="#i" id="t"/><use height="27" width="42.5" xlink:href="#j" id="u"/><use height="25.95" width="40.8" xlink:href="#k" id="v"/><use height="25.25" width="36.6" xlink:href="#l" id="w"/><use height="25.4" width="24.75" xlink:href="#m" id="b"/><use height="23.1" width="23.15" xlink:href="#n" id="c"/><use height="18.65" width="14.8" xlink:href="#o" id="d"/><use height="10" width="7.25" xlink:href="#p" id="e"/><use height="17.95" width="12.25" xlink:href="#q" id="f"/><use height="1.5" width="2.8" xlink:href="#r" id="g"/><use height="23.05" width="22.85" xlink:href="#s" id="h"/><path d="m40.6 29-4.45-1.7q-.3-2.75-2.15-7.25-1.75-4.2-3-5.75l-4.9-2.25q2.05 2.8 1.3 8.5-1.35-3.35-2.75-5.1l-4.1-5.85q-3 4.9-4.1 9-1.05 4.1-2.2 6.75-.5-4.9-.15-7.35-2.4 4.8-3.7 9.75-1.1-3.3-.45-8.55.55-4.65 1.75-6.9l-1.7.9q-4.95 7.1-6.2 14.05L0 29.6q.1-3.05.9-6.8 1.6-7.45 5.3-10.7.35-2 1.6-4.8 1.45-3.1 2.65-3.75 4.45-2.35 5.7-2.8 4.7-1.7 6.4.45L26.9.6q3 .35 6.15 3.75 1.75 1.9 2.65 8.35l3.4 3.7q3.55 4.15 4.35 6.65 1.25 4 .9 6.55-2.6-4.1-3.85-5.2.55 2.2.1 4.6" fill="#1b191e" fill-rule="evenodd" id="i"/><path d="M41.7 22.4q.5 1.45.8 3.45-1.55-2.25-2.4-2.95l-1.9-1.65.6 2.45.2 2.15-.05 1.1-3.05-1.1q-.4-2.95-2.25-7.3-1.7-4.05-2.95-5.65l-.15-.15-6.4-2.95 1.6 6.45-1.4-2.2-4.05-5.8-.7-1-.65 1.05q-3.15 5-4.2 9.2l-.9 3.05.1-7.15q-2.45 5.05-4.3 10.2l-.1-1.9q0-4.35 1.45-9.5l1.05-2.1-3.4 1.5-.15.1-.1.15q-4.9 6.9-6.2 13.9-.95.4-2.2 1.25.95-10.9 5.75-15.2l.25-.15.05-.3Q6.4 9.4 7.6 6.75 8.9 3.9 9.9 3.4l.4-.25Q19.1-1.55 20.95.8l.3.4 1.1-.3 3.9-.35q2.45.5 5.25 3.45 1.55 1.65 2.45 7.9l.05.3.2.2 3.35 3.6q3.45 4.05 4.15 6.4" fill="#005bbd" fill-rule="evenodd" id="j"/><path d="m26.4 3.85 1.4.9q1.55 1.1 2.2 2.1-1.55-1-2.55-1.2h-.7l3.35 2.7-3-.9 1.45 1.5q1.7 1.45 3.2 1.3-1.5.45-3.45-.05l-1.65-.55-4.75-2.1.95 1.95q1.1 2.5 1.7 5.1L19.9 6.85l3.05-.3q-1.05-.85-1.7-.85L24 5.55q-1.5-.85-2.55-.85 2.15-.2 3.2-.05-1.8-1.3-3.05-1.25l3-.05q-1.75-1.2-3.05-1.1l2.85-.3-2.95-.9L24.6.5q.75.05 2.8 1.2 2.25 1.25 3 2.2l-3.85-1.5L30 5.15q-1.8-1.1-2.85-1.3h-.75m5.05 9.5q3.65 4.15 4.4 8.2-.05-1.65-1.3-5.7 2.25 3.7 2.9 10.1l-1.65-.65q-.35-5.6-4.35-11.95m6.9 6.1-1.55-1.6-1-2.8q3.9 4.1 5 7.85-.7-1.55-2.45-3.45M19.2 5.55q-3.6 3.1-4.85 7.8.55-4.4 1.3-5.75-3.8 3.15-6.4 12.5l.25-3.4q.5-3.9 1.7-6.3l-2.15-.2-1.15.25Q2.3 15.7.95 25.4l-.95.55q-.05-2.1.65-5 1.45-5.8 5.4-9.9l1.3-3.65q1.25-3.5 1.9-4.05 1.05-.85 3.65-2Q16 0 17.85 0l-6.4 3.3 6.6-2.2-5.5 3 5.65-2.05-4.15 2.85 4.45-1.45-3.6 2.25 3.9-.8q-1.95.8-1 .8l1.4-.15m-5.3.65q-3 .6-4.25 1.15l2.5-.05L8.6 9.2l3-.3 2.3-2.7" fill="#0083ff" fill-rule="evenodd" id="k"/><path d="M23.1 6.5q.3.9-.95 3.4-1.2 2.45-2.45 3.7l-.2.15-.05.3-1.15 3.05q-1.1 2.4-1.9 2.9l-4.65.65-4.4.4Q6 21.3 3.9 22.25q-2.6 1.15-3.55.7l-.3-.4q-.45-1.35 2.25-5.8l.3-.4-.3-.4q-2.45-4.15-1-8.5 1.25-3.6 5.5-5.65l1.8-.1q1.5-.4 1.8-1.25 4.05-1.1 7.4.4 4 1.85 5.3 5.65" fill="#b30002" fill-rule="evenodd" id="n"/><path d="M14.8 6.35q-.3 2.1-2.75 5.55l-9 .75Q1.9 9.2 2.1 5.95 2.25 2.9 1.45.8L2.2.25q4.45-.95 7.9 1.4 1.15.8 4.7 4.7M0 18.65l.55-2q.85-2.2 2.15-3.2l8.4-.25q-1.45 4.2-3.9 4.55l-7.2.9" fill="#860002" fill-rule="evenodd" id="o"/><path d="M1.35 4.65Q1.7 1.5 3.65 0l.75 2.75Q5.45 6 7.25 8.4l-2.7-2.75-1.95.15 1.55-1.1-.85-2.6q-.6.5-.95 3.45l-.45 2.8Q1.25 9.65.2 10l.75-2.35L0 7q1.1-.35 1.35-2.35" fill="#fff" fill-rule="evenodd" id="p"/><path d="m1.2.1 1.35.1.25.25-.1.4q-.2.55-1.1.75L.25 1.5 0 1.25.1.9 1.2.1" fill="#9f0002" fill-rule="evenodd" transform="translate(0 -.1)" id="r"/><path d="m1.9 5.25 3 .05L.6 6.4l1.85-3.6L7.6 0 3.2 3.1q2.7-.95 2.2-.6L2.55 4.25q4.2-.95 3.35-.55l-4 1.55m5.3.2q2.05-.9 2.15-.4 1.05.3.45.95l-2.45 5.35L8.7 6q-3.2 1.9-5.15 7.35-1 2.7-1.35 5.05.25-3.15 1.25-7.25t3.75-5.7M19.7 2.5l-1.55.25 2.1 1.6-2.25.4q3.5 1.35 2.1 1.2l-3.05.75 4.55 2.5-7.35-2.75q.4.45 2.45 6.15l-3.6-6.15q-.1-.5 1.3-.4l1.65.2.3-.45q.05-.45-.3-.7l2.5.5q-.75-.95-1.9-1.5l1.55-.4q-.3-.65-1.6-1 .55.1 1.45-.45l-1.5-.85 1.25-.1-.4-1.1 2.7.85-1.7.3 1.3 1.15M3.4 8.75 0 9.2q1.95-1 3.7-1l-.3.55m0-1.95L.5 8.2l.15-1.65 2.75.25m21.55 6.85q1.9 2.9 3.2 7.2 1.15 4.05.45 3.5-.05-2.2-1.85-6.7l-1.8-4M-7.2 24.85l-.55.4q.5-6.45 3.35-11.1 1.4-2.3 2.7-3.35-3.35 4.05-4.75 9.45-.7 2.7-.75 4.6" transform="translate(7.75)" id="l" fill="#00b8ff" fill-rule="evenodd"/><path d="M2.3 6.2q1.2-2.3 3-3.5Q-.45 8.2 3.6 16q-1.2 1.65-1.95 3.65-.85 2.1-.05 1.9l2.55-.95q2.05-.75 3.5-.85l5.3-.05q3.7-.3 4.95-2.05-1.1 2.6-3.4 2.95l-6.45.2q-2.75.1-4.8 1.1L.7 23.05q-2.1.25 1.95-7.05-2.8-5.3-.35-9.8M15.9.9Q13.95.3 11.6.45l-.55.1v-.1l-.1-.05 1.2-.3q2.9-.35 5.1.8 4.35 2.35 5.6 5.75l-3-2.85Q17.7 1.5 15.9.9" id="s" fill="#ff0002" fill-rule="evenodd"/><g id="a" transform="translate(22.2 14.8)"><use height="29.6" transform="translate(-22.2 -14.8)" width="44.45" xlink:href="#t"/><use height="27" transform="translate(-21.25 -13.9)" width="42.5" xlink:href="#u"/><use height="25.95" transform="translate(-20.5 -13.3)" width="40.8" xlink:href="#v"/><use height="25.25" transform="translate(-21.05 -12.35)" width="36.6" xlink:href="#w"/></g><g id="m" fill="#1b191e" fill-rule="evenodd"><path d="M11.2 1.1q.35 1.55-1.8 2.1-2.2.65-2.55-.9Q6.4.75 8.6.2q2.15-.65 2.6.9"/><path d="M20.45 2.55q3.2 2.15 4.2 5.2.4 1.2-.95 4-1.3 2.55-2.65 3.9L19.9 18.9q-1.2 2.65-2.3 3.3-.9.55-4.1.7l-5.2.45q-.9.2-4.15 1.5-2.15.9-3.35.35-2.25-1.05 1.65-7.35-1.95-3.3-1.5-7.2.65-5.85 7.65-8.7 6.95-2.8 11.85.6"/></g><g id="q" fill="#620002" fill-rule="evenodd"><path d="M9.95 11.35Q7.25 2.1.2 0q7.45 0 12.05 7.4-1.2 3-2.3 3.95"/><path d="M9.7 11.9q-.1.5-.65.45L3.55 12Q2.6 3.55 0 .35q5.55.95 9.7 11.55m-5.9 1.2q1.4-.55 5.1-.05-.65 2.2-1.55 3.4-.85 1.2-5.15 1.5l1.6-4.85"/></g></defs></svg>

<?xml version="1.0" encoding="UTF-8" standalone="no"?>
<svg xmlns:xlink="http://www.w3.org/1999/xlink" height="92.9px" width="100.7px" xmlns="http://www.w3.org/2000/svg">
  <g transform="matrix(1.0, 0.0, 0.0, 1.0, 38.65, 49.75)">
    <use height="29.6" transform="matrix(1.0, 0.0, 0.0, 1.0, -20.45, -4.3)" width="44.45" xlink:href="#sprite0"/>
    <use height="25.4" transform="matrix(1.0, 0.0, 0.0, 1.0, -17.5, -11.5)" width="24.75" xlink:href="#sprite5"/>
    <use height="23.1" transform="matrix(1.0, 0.0, 0.0, 1.0, -16.7, -10.0)" width="23.15" xlink:href="#sprite6"/>
    <use height="18.65" transform="matrix(1.0, 0.0, 0.0, 1.0, -8.75, -9.35)" width="14.8" xlink:href="#sprite7"/>
    <use height="10.0" transform="matrix(1.0, 0.0, 0.0, 1.0, -11.65, -5.95)" width="7.25" xlink:href="#sprite8"/>
    <use height="17.95" transform="matrix(1.0, 0.0, 0.0, 1.0, -6.55, -9.2)" width="12.25" xlink:href="#sprite9"/>
    <use height="1.5" transform="matrix(1.0, 0.0, 0.0, 1.0, -9.9, -10.55)" width="2.8" xlink:href="#sprite10"/>
    <use height="23.05" transform="matrix(1.0, 0.0, 0.0, 1.0, -16.45, -10.15)" width="22.85" xlink:href="#sprite11"/>
  </g>
  <defs>
    <g id="sprite0" transform="matrix(1.0, 0.0, 0.0, 1.0, 22.2, 14.8)">
      <use height="29.6" transform="matrix(1.0, 0.0, 0.0, 1.0, -22.2, -14.8)" width="44.45" xlink:href="#sprite1"/>
      <use height="27.0" transform="matrix(1.0, 0.0, 0.0, 1.0, -21.25, -13.9)" width="42.5" xlink:href="#sprite2"/>
      <use height="25.95" transform="matrix(1.0, 0.0, 0.0, 1.0, -20.5, -13.3)" width="40.8" xlink:href="#sprite3"/>
      <use height="25.25" transform="matrix(1.0, 0.0, 0.0, 1.0, -21.05, -12.35)" width="36.6" xlink:href="#sprite4"/>
    </g>
    <g id="sprite1" transform="matrix(1.0, 0.0, 0.0, 1.0, 0.0, 0.0)">
      <use height="29.6" transform="matrix(1.0, 0.0, 0.0, 1.0, 0.0, 0.0)" width="44.45" xlink:href="#shape0"/>
    </g>
    <g id="shape0" transform="matrix(1.0, 0.0, 0.0, 1.0, 0.0, 0.0)">
      <path d="M40.6 29.0 L36.15 27.3 Q35.85 24.55 34.0 20.05 32.25 15.85 31.0 14.3 L26.1 12.05 Q28.15 14.85 27.4 20.55 26.05 17.2 24.65 15.45 L20.55 9.6 Q17.55 14.5 16.45 18.6 15.4 22.7 14.25 25.35 13.75 20.45 14.1 18.0 11.7 22.8 10.4 27.75 9.3 24.45 9.95 19.2 10.5 14.55 11.7 12.3 L10.0 13.2 Q5.05 20.3 3.8 27.25 L0.0 29.6 Q0.1 26.55 0.9 22.8 2.5 15.35 6.2 12.1 6.55 10.1 7.8 7.3 9.25 4.2 10.45 3.55 14.9 1.2 16.15 0.75 20.85 -0.95 22.55 1.2 L26.9 0.6 Q29.9 0.95 33.05 4.35 34.8 6.25 35.7 12.7 L39.1 16.4 Q42.65 20.55 43.45 23.05 44.7 27.05 44.35 29.6 41.75 25.5 40.5 24.4 41.05 26.6 40.6 29.0" fill="#1b191e" fill-rule="evenodd" stroke="none"/>
    </g>
    <g id="sprite2" transform="matrix(1.0, 0.0, 0.0, 1.0, 0.0, 0.0)">
      <use height="27.0" transform="matrix(1.0, 0.0, 0.0, 1.0, 0.0, 0.0)" width="42.5" xlink:href="#shape1"/>
    </g>
    <g id="shape1" transform="matrix(1.0, 0.0, 0.0, 1.0, 0.0, 0.0)">
      <path d="M41.7 22.4 Q42.2 23.85 42.5 25.85 40.95 23.6 40.1 22.9 L38.2 21.25 38.8 23.7 39.0 25.85 38.95 26.95 35.9 25.85 Q35.5 22.9 33.65 18.55 31.95 14.5 30.7 12.9 L30.55 12.75 24.15 9.8 25.75 16.25 24.35 14.05 20.3 8.25 19.6 7.25 18.95 8.3 Q15.8 13.3 14.75 17.5 L13.85 20.55 13.95 13.4 Q11.5 18.45 9.65 23.6 L9.55 21.7 Q9.55 17.35 11.0 12.2 L12.05 10.1 8.65 11.6 8.5 11.7 8.4 11.85 Q3.5 18.75 2.2 25.75 1.25 26.15 0.0 27.0 0.95 16.1 5.75 11.8 L6.0 11.65 6.05 11.35 Q6.4 9.4 7.6 6.75 8.9 3.9 9.9 3.4 L10.3 3.15 Q19.1 -1.55 20.95 0.8 L21.25 1.2 22.35 0.9 26.25 0.55 Q28.7 1.05 31.5 4.0 33.05 5.65 33.95 11.9 L34.0 12.2 34.2 12.4 37.55 16.0 Q41.0 20.05 41.7 22.4" fill="#005bbd" fill-rule="evenodd" stroke="none"/>
    </g>
    <g id="sprite3" transform="matrix(1.0, 0.0, 0.0, 1.0, 0.0, 0.0)">
      <use height="25.95" transform="matrix(1.0, 0.0, 0.0, 1.0, 0.0, 0.0)" width="40.8" xlink:href="#shape2"/>
    </g>
    <g id="shape2" transform="matrix(1.0, 0.0, 0.0, 1.0, 0.0, 0.0)">
      <path d="M26.4 3.85 L27.8 4.75 Q29.35 5.85 30.0 6.85 28.45 5.85 27.45 5.65 L26.75 5.65 30.1 8.35 27.1 7.45 28.55 8.95 Q30.25 10.4 31.75 10.25 30.25 10.7 28.3 10.2 L26.65 9.65 21.9 7.55 22.85 9.5 Q23.95 12.0 24.55 14.6 L19.9 6.85 22.95 6.55 Q21.9 5.7 21.25 5.7 L24.0 5.55 Q22.5 4.7 21.45 4.7 23.6 4.5 24.65 4.65 22.85 3.35 21.6 3.4 L24.6 3.35 Q22.85 2.15 21.55 2.25 L24.4 1.95 21.45 1.05 24.6 0.5 Q25.35 0.55 27.4 1.7 29.65 2.95 30.4 3.9 L26.55 2.4 30.0 5.15 Q28.2 4.05 27.15 3.85 L26.4 3.85 M31.45 13.35 Q35.1 17.5 35.85 21.55 35.8 19.9 34.55 15.85 36.8 19.55 37.45 25.95 L35.8 25.3 Q35.45 19.7 31.45 13.35 M38.35 19.45 L36.8 17.85 35.8 15.05 Q39.7 19.15 40.8 22.9 40.1 21.35 38.35 19.45 M19.2 5.55 Q15.6 8.65 14.35 13.35 14.9 8.95 15.65 7.6 11.85 10.75 9.25 20.1 L9.5 16.7 Q10.0 12.8 11.2 10.4 L9.05 10.2 7.9 10.45 Q2.3 15.7 0.95 25.4 L0.0 25.95 Q-0.05 23.85 0.65 20.95 2.1 15.15 6.05 11.05 L7.35 7.4 Q8.6 3.9 9.25 3.35 10.3 2.5 12.9 1.35 16.0 0.0 17.85 0.0 L11.45 3.3 18.05 1.1 12.55 4.1 18.2 2.05 14.05 4.9 18.5 3.45 14.9 5.7 18.8 4.9 Q16.85 5.7 17.8 5.7 L19.2 5.55 M13.9 6.2 Q10.9 6.8 9.65 7.35 L12.15 7.3 8.6 9.2 11.6 8.9 13.9 6.2" fill="#0083ff" fill-rule="evenodd" stroke="none"/>
    </g>
    <g id="sprite4" transform="matrix(1.0, 0.0, 0.0, 1.0, 7.75, 0.0)">
      <use height="25.25" transform="matrix(1.0, 0.0, 0.0, 1.0, -7.75, 0.0)" width="36.6" xlink:href="#shape3"/>
    </g>
    <g id="shape3" transform="matrix(1.0, 0.0, 0.0, 1.0, 7.75, 0.0)">
      <path d="M1.9 5.25 L4.9 5.3 0.6 6.4 2.45 2.8 7.6 0.0 3.2 3.1 Q5.9 2.15 5.4 2.5 L2.55 4.25 Q6.75 3.3 5.9 3.7 L1.9 5.25" fill="#00b8ff" fill-rule="evenodd" stroke="none"/>
      <path d="M7.2 5.45 Q9.25 4.55 9.35 5.05 10.4 5.35 9.8 6.0 L7.35 11.35 8.7 6.0 Q5.5 7.9 3.55 13.35 2.55 16.05 2.2 18.4 2.45 15.25 3.45 11.15 4.45 7.05 7.2 5.45" fill="#00b8ff" fill-rule="evenodd" stroke="none"/>
      <path d="M19.7 2.5 L18.15 2.75 20.25 4.35 18.0 4.75 Q21.5 6.1 20.1 5.95 L17.05 6.7 21.6 9.2 14.25 6.45 Q14.65 6.9 16.7 12.6 L13.1 6.45 Q13.0 5.95 14.4 6.05 L16.05 6.25 16.35 5.8 Q16.4 5.35 16.05 5.1 L18.55 5.6 Q17.8 4.65 16.65 4.1 L18.2 3.7 Q17.9 3.05 16.6 2.7 17.15 2.8 18.05 2.25 L16.55 1.4 17.8 1.3 17.4 0.2 20.1 1.05 18.4 1.35 19.7 2.5" fill="#00b8ff" fill-rule="evenodd" stroke="none"/>
      <path d="M3.4 8.75 L0.0 9.2 Q1.95 8.2 3.7 8.2 L3.4 8.75" fill="#00b8ff" fill-rule="evenodd" stroke="none"/>
      <path d="M3.4 6.8 L0.5 8.2 0.65 6.55 3.4 6.8" fill="#00b8ff" fill-rule="evenodd" stroke="none"/>
      <path d="M24.95 13.65 Q26.85 16.55 28.15 20.85 29.3 24.9 28.6 24.35 28.55 22.15 26.75 17.65 L24.95 13.65" fill="#00b8ff" fill-rule="evenodd" stroke="none"/>
      <path d="M-7.2 24.85 L-7.75 25.25 Q-7.25 18.8 -4.4 14.15 -3.0 11.85 -1.7 10.8 -5.05 14.85 -6.45 20.25 -7.15 22.95 -7.2 24.85" fill="#00b8ff" fill-rule="evenodd" stroke="none"/>
    </g>
    <g id="sprite5" transform="matrix(1.0, 0.0, 0.0, 1.0, 0.0, 0.0)">
      <use height="25.4" transform="matrix(1.0, 0.0, 0.0, 1.0, 0.0, 0.0)" width="24.75" xlink:href="#shape4"/>
    </g>
    <g id="shape4" transform="matrix(1.0, 0.0, 0.0, 1.0, 0.0, 0.0)">
      <path d="M11.2 1.1 Q11.55 2.65 9.4 3.2 7.2 3.85 6.85 2.3 6.4 0.75 8.6 0.2 10.75 -0.45 11.2 1.1" fill="#1b191e" fill-rule="evenodd" stroke="none"/>
      <path d="M20.45 2.55 Q23.65 4.7 24.65 7.75 25.05 8.95 23.7 11.75 22.4 14.3 21.05 15.65 L19.9 18.9 Q18.7 21.55 17.6 22.2 16.7 22.75 13.5 22.9 L8.3 23.35 Q7.4 23.55 4.15 24.85 2.0 25.75 0.8 25.2 -1.45 24.15 2.45 17.85 0.5 14.55 0.95 10.65 1.6 4.8 8.6 1.95 15.55 -0.85 20.45 2.55" fill="#1b191e" fill-rule="evenodd" stroke="none"/>
    </g>
    <g id="sprite6" transform="matrix(1.0, 0.0, 0.0, 1.0, 0.0, 0.0)">
      <use height="23.1" transform="matrix(1.0, 0.0, 0.0, 1.0, 0.0, 0.0)" width="23.15" xlink:href="#shape5"/>
    </g>
    <g id="shape5" transform="matrix(1.0, 0.0, 0.0, 1.0, 0.0, 0.0)">
      <path d="M23.1 6.5 Q23.4 7.4 22.15 9.9 20.95 12.35 19.7 13.6 L19.5 13.75 19.45 14.05 18.3 17.1 Q17.2 19.5 16.4 20.0 L11.75 20.65 7.35 21.05 Q6.0 21.3 3.9 22.25 1.3 23.4 0.35 22.95 L0.05 22.55 Q-0.4 21.2 2.3 16.75 L2.6 16.35 2.3 15.95 Q-0.15 11.8 1.3 7.45 2.55 3.85 6.8 1.8 L8.6 1.7 Q10.1 1.3 10.4 0.45 14.45 -0.65 17.8 0.85 21.8 2.7 23.1 6.5" fill="#b30002" fill-rule="evenodd" stroke="none"/>
    </g>
    <g id="sprite7" transform="matrix(1.0, 0.0, 0.0, 1.0, 0.0, 0.0)">
      <use height="18.65" transform="matrix(1.0, 0.0, 0.0, 1.0, 0.0, 0.0)" width="14.8" xlink:href="#shape6"/>
    </g>
    <g id="shape6" transform="matrix(1.0, 0.0, 0.0, 1.0, 0.0, 0.0)">
      <path d="M14.8 6.35 Q14.5 8.45 12.05 11.9 L3.05 12.65 Q1.9 9.2 2.1 5.95 2.25 2.9 1.45 0.8 L2.2 0.25 Q6.65 -0.7 10.1 1.65 11.25 2.45 14.8 6.35 M0.0 18.65 L0.55 16.65 Q1.4 14.45 2.7 13.45 L11.1 13.2 Q9.65 17.4 7.2 17.75 L0.0 18.65" fill="#860002" fill-rule="evenodd" stroke="none"/>
    </g>
    <g id="sprite8" transform="matrix(1.0, 0.0, 0.0, 1.0, 0.0, 0.0)">
      <use height="10.0" transform="matrix(1.0, 0.0, 0.0, 1.0, 0.0, 0.0)" width="7.25" xlink:href="#shape7"/>
    </g>
    <g id="shape7" transform="matrix(1.0, 0.0, 0.0, 1.0, 0.0, 0.0)">
      <path d="M1.35 4.65 Q1.7 1.5 3.65 0.0 L4.4 2.75 Q5.45 6.0 7.25 8.4 L4.55 5.65 2.6 5.8 4.15 4.7 3.3 2.1 Q2.7 2.6 2.35 5.55 L1.9 8.35 Q1.25 9.65 0.2 10.0 L0.95 7.65 0.0 7.0 Q1.1 6.65 1.35 4.65" fill="#ffffff" fill-rule="evenodd" stroke="none"/>
    </g>
    <g id="sprite9" transform="matrix(1.0, 0.0, 0.0, 1.0, 0.0, 0.0)">
      <use height="17.95" transform="matrix(1.0, 0.0, 0.0, 1.0, 0.0, 0.0)" width="12.25" xlink:href="#shape8"/>
    </g>
    <g id="shape8" transform="matrix(1.0, 0.0, 0.0, 1.0, 0.0, 0.0)">
      <path d="M9.95 11.35 Q7.25 2.1 0.2 0.0 7.65 0.0 12.25 7.4 11.05 10.4 9.95 11.35" fill="#620002" fill-rule="evenodd" stroke="none"/>
      <path d="M9.7 11.9 Q9.6 12.4 9.05 12.35 L3.55 12.0 Q2.6 3.55 0.0 0.35 5.55 1.3 9.7 11.9" fill="#620002" fill-rule="evenodd" stroke="none"/>
      <path d="M3.8 13.1 Q5.2 12.55 8.9 13.05 8.25 15.25 7.35 16.45 6.5 17.65 2.2 17.95 L3.8 13.1" fill="#620002" fill-rule="evenodd" stroke="none"/>
    </g>
    <g id="sprite10" transform="matrix(1.0, 0.0, 0.0, 1.0, 0.0, -0.1)">
      <use height="1.5" transform="matrix(1.0, 0.0, 0.0, 1.0, 0.0, 0.1)" width="2.8" xlink:href="#shape9"/>
    </g>
    <g id="shape9" transform="matrix(1.0, 0.0, 0.0, 1.0, 0.0, -0.1)">
      <path d="M1.2 0.1 L2.55 0.2 2.8 0.45 2.7 0.85 Q2.5 1.4 1.6 1.6 L0.25 1.5 0.0 1.25 0.1 0.9 1.2 0.1" fill="#9f0002" fill-rule="evenodd" stroke="none"/>
    </g>
    <g id="sprite11" transform="matrix(1.0, 0.0, 0.0, 1.0, 0.0, 0.0)">
      <use height="23.05" transform="matrix(1.0, 0.0, 0.0, 1.0, 0.0, 0.0)" width="22.85" xlink:href="#shape10"/>
    </g>
    <g id="shape10" transform="matrix(1.0, 0.0, 0.0, 1.0, 0.0, 0.0)">
      <path d="M2.3 6.2 Q3.5 3.9 5.3 2.7 -0.45 8.2 3.6 16.0 2.4 17.65 1.65 19.65 0.8 21.75 1.6 21.55 L4.15 20.6 Q6.2 19.85 7.65 19.75 L12.95 19.7 Q16.65 19.4 17.9 17.65 16.8 20.25 14.5 20.6 L8.05 20.8 Q5.3 20.9 3.25 21.9 L0.7 23.05 Q-1.4 23.3 2.65 16.0 -0.15 10.7 2.3 6.2" fill="#ff0002" fill-rule="evenodd" stroke="none"/>
      <path d="M15.9 0.9 Q13.95 0.3 11.6 0.45 L11.05 0.55 11.05 0.45 10.95 0.4 12.15 0.1 Q15.05 -0.25 17.25 0.9 21.6 3.25 22.85 6.65 L19.85 3.8 Q17.7 1.5 15.9 0.9" fill="#ff0002" fill-rule="evenodd" stroke="none"/>
    </g>
  </defs>
</svg>
